X:770
T: Game Cock
T: Coileach Comhraic
S: B.Breathnach:"Ceol Rince na hEireann" IV/62
Z: B.Black
L: 1/8
M: 12/8
Q: 360
R: jig
K: D
A|F2A d2A BAB d2A|Bcd A2F E3 E2A|
F2A d2A BAB d2A|Bcd A2F D3 D2 :|
g|f3 f2e d2e f2g|a2f d2f e3 e2g|
f3 f2e d2e fed|Bcd A2F D3 D2 :|
